Numix-Circle/48x48/apps/eidete.svg

<?xml version="1.0" encoding="UTF-8" standalone="no"?>
<svg
   xmlns:dc="http://purl.org/dc/elements/1.1/"
   xmlns:cc="http://creativecommons.org/ns#"
   xmlns:rdf="http://www.w3.org/1999/02/22-rdf-syntax-ns#"
   xmlns:svg="http://www.w3.org/2000/svg"
   xmlns="http://www.w3.org/2000/svg"
   xmlns:xlink="http://www.w3.org/1999/xlink"
   xmlns:sodipodi="http://sodipodi.sourceforge.net/DTD/sodipodi-0.dtd"
   xmlns:inkscape="http://www.inkscape.org/namespaces/inkscape"
   width="48"
   viewBox="0 0 13.546667 13.546667"
   height="48"
   id="svg2"
   version="1.1"
   inkscape:version="0.91 r13725"
   sodipodi:docname="eidete.svg">
  <metadata
     id="metadata331">
    <rdf:RDF>
      <cc:Work
         rdf:about="">
        <dc:format>image/svg+xml</dc:format>
        <dc:type
           rdf:resource="http://purl.org/dc/dcmitype/StillImage" />
        <dc:title />
      </cc:Work>
    </rdf:RDF>
  </metadata>
  <sodipodi:namedview
     pagecolor="#ffffff"
     bordercolor="#666666"
     borderopacity="1"
     objecttolerance="10"
     gridtolerance="10"
     guidetolerance="10"
     inkscape:pageopacity="0"
     inkscape:pageshadow="2"
     inkscape:window-width="1920"
     inkscape:window-height="1023"
     id="namedview329"
     showgrid="true"
     inkscape:zoom="17.137658"
     inkscape:cx="14.392181"
     inkscape:cy="22.804346"
     inkscape:window-x="0"
     inkscape:window-y="28"
     inkscape:window-maximized="1"
     inkscape:current-layer="layer2"
     showguides="true"
     inkscape:guide-bbox="true">
    <inkscape:grid
       type="xygrid"
       id="grid3308" />
  </sodipodi:namedview>
  <defs
     id="defs4">
    <linearGradient
       inkscape:collect="always"
       xlink:href="#linearGradient4069"
       id="linearGradient4147"
       x1="-27"
       y1="13"
       x2="-24"
       y2="13"
       gradientUnits="userSpaceOnUse" />
    <linearGradient
       id="linearGradient4069">
      <stop
         style="stop-color:#e9be3c;stop-opacity:1;"
         offset="0"
         id="stop4071" />
      <stop
         style="stop-color:#f5cf5d;stop-opacity:1;"
         offset="1"
         id="stop4073" />
    </linearGradient>
  </defs>
  <g
     inkscape:groupmode="layer"
     id="layer1"
     inkscape:label="Shadow"
     sodipodi:insensitive="true">
    <path
       style="opacity:0.05;fill:#000000;fill-opacity:1;stroke:none"
       d="M 25,2 C 12.297451,2 2,12.297451 2,25 2,31.367153 4.6007106,37.116628 8.78125,41.28125 12.865755,44.99361 18.29568,47.25 24.25,47.25 c 12.702549,0 23,-10.297451 23,-23 0,-5.95432 -2.25639,-11.384245 -5.96875,-15.46875 C 37.116628,4.6007105 31.367153,2 25,2 z M 41.28125,8.78125 C 45.135604,12.894061 47.5,18.418655 47.5,24.5 c 0,12.702549 -10.297451,23 -23,23 C 18.418655,47.5 12.894061,45.135604 8.78125,41.28125 12.940939,45.4251 18.664604,48 25,48 37.702549,48 48,37.702549 48,25 48,18.664604 45.4251,12.940939 41.28125,8.78125 z"
       transform="scale(0.28222223,0.28222223)"
       id="path3978"
       inkscape:connector-curvature="0" />
    <path
       style="opacity:0.1;fill:#000000;fill-opacity:1;stroke:none"
       d="M 41.28125,8.78125 C 44.99361,12.865755 47.25,18.29568 47.25,24.25 c 0,12.702549 -10.297451,23 -23,23 -5.95432,0 -11.384245,-2.25639 -15.46875,-5.96875 C 12.894061,45.135604 18.418655,47.5 24.5,47.5 c 12.702549,0 23,-10.297451 23,-23 0,-6.081345 -2.364396,-11.605939 -6.21875,-15.71875 z"
       transform="scale(0.28222223,0.28222223)"
       id="path3976"
       inkscape:connector-curvature="0" />
    <path
       transform="matrix(4.3274074,0,0,3.2455556,117.19278,-35.348334)"
       d="m -24,13 a 1.5,2 0 1 1 -3,0 1.5,2 0 1 1 3,0 z"
       sodipodi:ry="2"
       sodipodi:rx="1.5"
       sodipodi:cy="13"
       sodipodi:cx="-25.5"
       id="path3952"
       style="opacity:0.2;fill:#000000;fill-opacity:1;stroke:none"
       sodipodi:type="arc" />
  </g>
  <g
     inkscape:groupmode="layer"
     id="layer2"
     inkscape:label="Base">
    <path
       sodipodi:type="arc"
       style="fill:url(#linearGradient4147);fill-opacity:1.0;stroke:none"
       id="path3942"
       sodipodi:cx="-25.5"
       sodipodi:cy="13"
       sodipodi:rx="1.5"
       sodipodi:ry="2"
       d="m -24,13 a 1.5,2 0 1 1 -3,0 1.5,2 0 1 1 3,0 z"
       transform="matrix(0,-4.3274075,3.2455556,0,-35.429918,-103.60974)" />
    <path
       style="opacity:0.1;fill:#000000;fill-opacity:1;stroke:none"
       d="M 40.03125 7.53125 C 43.74361 11.615755 46 17.04568 46 23 C 46 35.702549 35.702549 46 23 46 C 17.04568 46 11.615755 43.74361 7.53125 40.03125 C 11.709416 44.322508 17.537578 47 24 47 C 36.702549 47 47 36.702549 47 24 C 47 17.537578 44.322508 11.709416 40.03125 7.53125 z "
       transform="scale(0.28222223,0.28222223)"
       id="path4027" />
  </g>
  <g
     inkscape:groupmode="layer"
     id="layer3"
     inkscape:label="Symbol">
    <path
       transform="matrix(0.28222223,0,0,0.29449277,-1.0833333e-8,0.11043445)"
       d="m 37,25.5 a 12,11.5 0 1 1 -24,0 12,11.5 0 1 1 24,0 z"
       sodipodi:ry="11.5"
       sodipodi:rx="12"
       sodipodi:cy="25.5"
       sodipodi:cx="25"
       id="path3944"
       style="opacity:0.1;fill:#000000;fill-opacity:1;stroke:none"
       sodipodi:type="arc" />
    <path
       sodipodi:type="arc"
       style="fill:#d2dde1;fill-opacity:1;stroke:none"
       id="path3898"
       sodipodi:cx="25"
       sodipodi:cy="25.5"
       sodipodi:rx="12"
       sodipodi:ry="11.5"
       d="m 37,25.5 a 12,11.5 0 1 1 -24,0 12,11.5 0 1 1 24,0 z"
       transform="matrix(0.28222223,0,0,0.29449277,-0.28222224,-0.45401003)" />
    <path
       transform="matrix(0.21166667,0,0,0.22086958,1.4816667,1.4233809)"
       d="m 37,25.5 a 12,11.5 0 1 1 -24,0 12,11.5 0 1 1 24,0 z"
       sodipodi:ry="11.5"
       sodipodi:rx="12"
       sodipodi:cy="25.5"
       sodipodi:cx="25"
       id="path3919"
       style="fill:#493762;fill-opacity:1;stroke:none"
       sodipodi:type="arc" />
    <path
       sodipodi:type="arc"
       style="fill:#4ba8db;fill-opacity:1;stroke:none"
       id="path3921"
       sodipodi:cx="25"
       sodipodi:cy="25.5"
       sodipodi:rx="12"
       sodipodi:ry="11.5"
       d="m 37,25.5 a 12,11.5 0 1 1 -24,0 12,11.5 0 1 1 24,0 z"
       transform="matrix(0.16462963,0,0,0.17178744,2.6575927,2.6749757)" />
    <path
       sodipodi:type="arc"
       style="fill:#00ccff;fill-opacity:1;stroke:none"
       id="path3930"
       sodipodi:cx="21"
       sodipodi:cy="24.5"
       sodipodi:rx="1"
       sodipodi:ry="1.5"
       d="m 22,24.5 a 1,1.5 0 1 1 -2,0 1,1.5 0 1 1 2,0 z"
       transform="matrix(0.42333334,0,0,0.28222223,-2.6811112,-0.28222223)" />
    <path
       transform="matrix(0.28222223,0,0,0.18814815,1.4111111,3.0103706)"
       d="m 22,24.5 a 1,1.5 0 1 1 -2,0 1,1.5 0 1 1 2,0 z"
       sodipodi:ry="1.5"
       sodipodi:rx="1"
       sodipodi:cy="24.5"
       sodipodi:cx="21"
       id="path3932"
       style="fill:#00ccff;fill-opacity:1;stroke:none"
       sodipodi:type="arc" />
    <path
       style="opacity:0.15;fill:#000000;fill-opacity:1;stroke:none"
       d="m 6.773333,5.0800002 c -1.0910687,0 -1.9755551,0.8844864 -1.9755551,1.9755551 0,0.613727 0.2841326,1.163418 0.7231945,1.525764 L 8.175696,5.6627891 C 7.817209,5.2975577 7.325531,5.0800002 6.773333,5.0800002 z"
       id="path3925"
       inkscape:connector-curvature="0"
       sodipodi:nodetypes="ssccs" />
    <path
       transform="matrix(0.28222223,0,0,0.28222223,7.337778,0.56444446)"
       d="M 11,9 A 2,2 0 1 1 7,9 2,2 0 1 1 11,9 z"
       sodipodi:ry="2"
       sodipodi:rx="2"
       sodipodi:cy="9"
       sodipodi:cx="9"
       id="path3948"
       style="opacity:0.1;fill:#000000;fill-opacity:1;stroke:none"
       sodipodi:type="arc" />
    <path
       sodipodi:type="arc"
       style="fill:#eb5523;fill-opacity:1;stroke:none"
       id="path3126"
       sodipodi:cx="9"
       sodipodi:cy="9"
       sodipodi:rx="2"
       sodipodi:ry="2"
       d="M 11,9 A 2,2 0 1 1 7,9 2,2 0 1 1 11,9 z"
       transform="matrix(0.28222223,0,0,0.28222223,7.0556113,0.28222226)" />
    <path
       inkscape:connector-curvature="0"
       style="opacity:0.15;fill:#000000;fill-opacity:1;stroke:none"
       d="m 9.5956113,2.2577779 c -0.3118,0 -0.5645,0.2527104 -0.5645,0.5644444 0,0.048709 0.01,0.096024 0.018,0.141111 0.063,-0.2434728 0.2838,-0.4233332 0.5468,-0.4233332 0.263,0 0.4840997,0.1798604 0.5467997,0.4233332 0.012,-0.045087 0.018,-0.092403 0.018,-0.141111 0,-0.311734 -0.2526997,-0.5644444 -0.5643997,-0.5644444 z"
       id="path3934" />
  </g>
</svg>

<svg xmlns="http://www.w3.org/2000/svg" width="48" viewBox="0 0 13.546667 13.546667" height="48">
 <defs>
  <linearGradient id="linearGradient4147" x1="-27" x2="-24" gradientUnits="userSpaceOnUse">
   <stop style="stop-color:#e9be3c;stop-opacity:1"/>
   <stop offset="1" style="stop-color:#f5cf5d;stop-opacity:1"/>
  </linearGradient>
 </defs>
 <g>
  <path d="m 25 2 c -12.703 0 -23 10.297 -23 23 0 6.367 2.601 12.12 6.781 16.281 4.085 3.712 9.514 5.969 15.469 5.969 c 12.703 0 23 -10.297 23 -23 0 -5.954 -2.256 -11.384 -5.969 -15.469 c -4.165 -4.181 -9.914 -6.781 -16.281 -6.781 z m 16.281 6.781 c 3.854 4.113 6.219 9.637 6.219 15.719 c 0 12.703 -10.297 23 -23 23 c -6.081 0 -11.606 -2.364 -15.719 -6.219 4.16 4.144 9.883 6.719 16.219 6.719 12.703 0 23 -10.297 23 -23 0 -6.335 -2.575 -12.06 -6.719 -16.219 z" transform="scale(0.28222223,0.28222223)" style="fill:#000;opacity:0.05;fill-opacity:1;stroke:none"/>
  <path d="m 41.28 8.781 c 3.712 4.085 5.969 9.514 5.969 15.469 c 0 12.703 -10.297 23 -23 23 -5.954 0 -11.384 -2.256 -15.469 -5.969 c 4.113 3.854 9.637 6.219 15.719 6.219 c 12.703 0 23 -10.297 23 -23 0 -6.081 -2.364 -11.606 -6.219 -15.719 z" transform="scale(0.28222223,0.28222223)" style="fill:#000;opacity:0.1;fill-opacity:1;stroke:none"/>
  <path transform="matrix(4.3274074,0,0,3.2455556,117.19278,-35.348334)" d="m -24 13 a 1.5 2 0 1 1 -3 0 1.5 2 0 1 1 3 0 z" style="fill:#000;opacity:0.2;fill-opacity:1;stroke:none"/>
 </g>
 <g>
  <path d="m -24 13 a 1.5 2 0 1 1 -3 0 1.5 2 0 1 1 3 0 z" transform="matrix(0,-4.3274075,3.2455556,0,-35.429918,-103.60974)" style="fill:url(#linearGradient4147);fill-opacity:1;stroke:none"/>
  <path d="m 40.03 7.531 c 3.712 4.085 5.969 9.514 5.969 15.469 c 0 12.703 -10.297 23 -23 23 c -5.954 0 -11.384 -2.256 -15.469 -5.969 c 4.178 4.291 10.01 6.969 16.469 6.969 c 12.703 0 23 -10.297 23 -23 c 0 -6.462 -2.677 -12.291 -6.969 -16.469 z" transform="scale(0.28222223,0.28222223)" style="fill:#000;opacity:0.1;fill-opacity:1;stroke:none"/>
 </g>
 <g>
  <path transform="matrix(0.28222223,0,0,0.29449277,-1.0833333e-8,0.11043445)" d="m 37 25.5 a 12 11.5 0 1 1 -24 0 12 11.5 0 1 1 24 0 z" style="fill:#000;opacity:0.1;fill-opacity:1;stroke:none"/>
  <path d="m 37 25.5 a 12 11.5 0 1 1 -24 0 12 11.5 0 1 1 24 0 z" transform="matrix(0.28222223,0,0,0.29449277,-0.28222224,-0.45401003)" style="fill:#d2dde1;fill-opacity:1;stroke:none"/>
  <path transform="matrix(0.21166667,0,0,0.22086958,1.4816667,1.4233809)" d="m 37 25.5 a 12 11.5 0 1 1 -24 0 12 11.5 0 1 1 24 0 z" style="fill:#493762;fill-opacity:1;stroke:none"/>
  <path d="m 37 25.5 a 12 11.5 0 1 1 -24 0 12 11.5 0 1 1 24 0 z" transform="matrix(0.16462963,0,0,0.17178744,2.6575927,2.6749757)" style="fill:#4ba8db;fill-opacity:1;stroke:none"/>
  <path d="m 22 24.5 a 1 1.5 0 1 1 -2 0 1 1.5 0 1 1 2 0 z" transform="matrix(0.42333334,0,0,0.28222223,-2.6811112,-0.28222223)" style="fill:#0cf;fill-opacity:1;stroke:none"/>
  <path transform="matrix(0.28222223,0,0,0.18814815,1.4111111,3.0103706)" d="m 22 24.5 a 1 1.5 0 1 1 -2 0 1 1.5 0 1 1 2 0 z" style="fill:#0cf;fill-opacity:1;stroke:none"/>
  <path d="m 6.773 5.08 c -1.091 0 -1.976 0.884 -1.976 1.976 0 0.614 0.284 1.163 0.723 1.526 l 2.655 -2.919 c -0.358 -0.365 -0.85 -0.583 -1.402 -0.583 z" style="fill:#000;opacity:0.15;fill-opacity:1;stroke:none"/>
  <path transform="matrix(0.28222223,0,0,0.28222223,7.337778,0.56444446)" d="M 11 9 A 2 2 0 1 1 7 9 2 2 0 1 1 11 9 z" style="fill:#000;opacity:0.1;fill-opacity:1;stroke:none"/>
  <path d="M 11 9 A 2 2 0 1 1 7 9 2 2 0 1 1 11 9 z" transform="matrix(0.28222223,0,0,0.28222223,7.0556113,0.28222226)" style="fill:#eb5523;fill-opacity:1;stroke:none"/>
  <path d="m 9.596 2.258 c -0.312 0 -0.565 0.253 -0.565 0.564 0 0.049 0.001 0.096 0.018 0.141 0.063 -0.243 0.284 -0.423 0.547 -0.423 0.263 0 0.484 0.18 0.547 0.423 0.012 -0.045 0.018 -0.092 0.018 -0.141 0 -0.312 -0.253 -0.564 -0.564 -0.564 z" style="fill:#000;opacity:0.15;fill-opacity:1;stroke:none"/>
 </g>
</svg>
